!!!!SEGMENT: pl-kk--kk-i-30--003_anonim--missa-sine-credo-sanctus.krn
!!!cenid: 17xx:2229
!!!COM: Anonim
!!!COM-rismid: pe30004985
!!!CDT:
!!!CNT:
!!!OPR: Missa sine Credo
!!!OTL: Sanctus
!!!OMV: 003
!!!PDT:
!!!AGN: Sacred; Mass
!!!SMS-siglum: PL-Kk
!!!SMS-shelfmark: Kk.I.30
!!!SMS-shelfwork: 001-003 M
!!!SMS-variant: Baſso. PL-Kk Kk.I.30:0014-0016
!!!SMS-altvar: Baſso PL-Kk Kk.I.30:0018-0020
!!!NIFC-rismid: 1001156436
!!!system-decoration: [(s1,s2,s3,s4)]
!!!key:
**kern	**text	**kern	**text	**kern	**text	**kern	**text
*part4	*part4	*part3	*part3	*part2	*part2	*part1	*part1
*staff4	*staff4	*staff3	*staff3	*staff2	*staff2	*staff1	*staff1
*Iempty	*	*Itenor	*	*Ialto	*	*Ivox	*
*I"Baſso.	*	*I"Tenore	*	*I"Alto.	*	*I"Canto.	*
*I'B	*	*I'T	*	*I'A	*	*I'S	*
*clefF4	*	*clefC4	*	*clefC3	*	*clefC1	*
*k[f#]	*	*k[f#]	*	*k[f#]	*	*k[f#]	*
*G:	*	*G:	*	*G:	*	*G:	*
*M2/1	*	*M2/1	*	*M2/1	*	*M2/1	*
*met(C|)	*	*met(C|)	*	*met(C|)	*	*met(C|)	*
*>[A,B,C,B]	*	*>[A,B,C,B]	*	*>[A,B,C,B]	*	*>[A,B,C,B]	*
=1	=1	=1	=1	=1	=1	=1	=1
*>A	*	*>A	*	*>A	*	*>A	*
*2\right	*	*2\right	*	*	*	*	*
!LO:TX:t=P:problem=w źródle inicjał S na początku pięciolinii	!	!LO:TX:t=P:problem=w źródle inicjał S na początku pięciolinii	!	!	!	!	!
!	!	!	!	!LO:TX:t=P:problem=w źródle inicjał S na początku pięciolinii	!	!LO:TX:t=P:problem=w źródle inicjał S na początku pięciolinii	!
!	!	!LO:TX:t=P::problem=w źródle oznaczenie tonacji&colon; F# f#	!	!	!	!	!
!LO:TX:t=P:problem=w źródle po znaku przykluczowym kropki na wysokości dżwięków GG BB D	!	!	!	!	!	!	!
!LO:TX:a:Bi:t=Lentè	!	!LO:TX:a:Bi:t=Lente	!	!	!	!	!
!LO:TX:t=P:problem=kreska pseudotaktowa	!	!	!	!	!	!	!
!	!	!	!	!	!	!LO:TX:t=P:problem=kreska pseudotaktowa	!
1r	.	(<4G/	San-	0r	.	0r	.
.	.	4A/)	.	.	.	.	.
.	.	(<4B/	-ctus	.	.	.	.
!	!	!LO:TX:t=P:problem=kreska pseudotaktowa	!	!	!	!	!
.	.	4G/)	.	.	.	.	.
!	!	!LO:TX:t=P:problem=kreska pseudotaktowa	!	!	!	!	!
4D\	San-	1d	.	.	.	.	.
4E\	.	.	.	.	.	.	.
4F#\	.	.	.	.	.	.	.
!LO:TX:t=P:problem=kreska pseudotaktowa	!	!	!	!	!	!	!
4D\	.	.	.	.	.	.	.
=2	=2	=2	=2	=2	=2	=2	=2
*	*	*	*	*2\right	*	*2\right	*
*lig	*	*lig	*	*	*	*	*
!	!	!	!	!LO:TX:t=P:problem=kreska pseudotaktowa	!	!	!
1G	.	1B	San-	1r	.	4g/	San-
.	.	.	.	.	.	4a/	.
.	.	.	.	.	.	4b/	.
!	!	!	!	!	!	!LO:TX:t=P:problem=kreska pseudotaktowa	!
.	.	.	.	.	.	4g/	.
!	!	!LO:TX:t=P:problem=kreska pseudotaktowa	!	!	!	!	!
1F#	.	1A	.	4d\	San-	1.dd	.
.	.	.	.	4e\	.	.	.
.	.	.	.	4f#\	.	.	.
!	!	!	!	!LO:TX:t=P:problem=kreska pseudotaktowa	!	!	!
.	.	.	.	4d\	.	.	.
*	*	*Xlig	*	*	*	*	*
=3-	=3-	=3	=3	=3	=3	=3-	=3-
1E	.	2B\	.	1g	-ctus	.	.
.	.	2e\	.	.	.	2cc#X\	.
*Xlig	*	*	*	*	*	*	*
!LO:TX:t=P:problem=kreska pseudotaktowa	!	!LO:TX:t=P:problem=kreska pseudotaktowa	!	!LO:TX:t=P:problem=kreska pseudotaktowa	!	!LO:TX:t=P:problem=kreska pseudotaktowa	!
!LO:TX:t=P:global:problem=kreska oddechu na różnych liniach [rozdzielacz słów / znak oddechu]	!	!	!	!	!	!	!
1D,<	-ctus	1A	-ctus	1f#	.	1dd	-ctus
=4	=4	=4	=4	=4	=4	=4	=4
*	*	*	*ij	*	*ij	*	*
2d\	San-	0d	San-	0f#	San-	1r	.
!LO:TX:t=P:problem=kreska pseudotaktowa	!	!	!	!	!	!	!
2d,<\	-ct(us)	.	.	.	.	.	.
2B\	Do-	.	.	.	.	0g	San-
4G\	-mi-	.	.	.	.	.	.
!LO:TX:t=P:problem=kreska pseudotaktowa	!	!	!	!	!	!	!
4G\	-n(us)	.	.	.	.	.	.
=5	=5	=5-	=5-	=5-	=5-	=5-	=5-
!	!	!LO:TX:t=P:problem=kreska pseudotaktowa	!	!LO:TX:t=P:problem=kreska pseudotaktowa	!	!	!
!	!	!LO:TX:t=P:global:problem=kreska oddechu na różnych liniach [rozdzielacz słów / znak oddechu]	!	!	!	!	!
2c\	De-	0c,<	-ctus	0e	-ctus	.	.
!LO:TX:t=P:problem=kreska pseudotaktowa	!	!	!	!	!	!	!
2c,<\	-us	.	.	.	.	.	.
!	!	!	!	!	!	!LO:TX:t=P:problem=kreska pseudotaktowa	!
!	!	!	!	!	!	!LO:TX:a:t=P:problem=w źródle możliwa ligatura	!
2A\	Do-	.	.	.	.	(<1f#X	-ctus
4F#\	-mi-	.	.	.	.	.	.
!LO:TX:t=P:problem=kreska pseudotaktowa	!	!	!	!	!	!	!
4F#\	-n(us)	.	.	.	.	.	.
*	*	*	*Xij	*	*Xij	*	*
=6	=6	=6	=6	=6	=6	=6	=6
!	!	!	!	!	!	!LO:TX:t=P:problem=kreska pseudotaktowa	!
!	!	!	!	!	!	!LO:TX:t=P:global:problem=kreska oddechu na różnych liniach [rozdzielacz słów / znak oddechu]	!
2B\	De-	1.B	Do-	1.d	Do-	1f#,<)	.
!LO:TX:t=P:problem=kreska pseudotaktowa	!	!	!	!	!	!	!
2B\	-us	.	.	.	.	.	.
*	*ij	*	*	*	*	*	*
!	!	!	!	!	!	!LO:TX:a:t=P:problem=w źródle możliwa ligatura	!
2G\	Do-	.	.	.	.	(<1e	Do-
!	!	!	!	!LO:TX:t=P:problem=kreska pseudotaktowa	!	!	!
4E\	-mi-	4B\	-mi-	2d\	-mi-	.	.
!	!	!LO:TX:t=P:problem=kreska pseudotaktowa	!	!	!	!	!
4E\	-nus	4B\	-n(us)	.	.	.	.
=7-	=7-	=7	=7	=7	=7	=7-	=7-
2A\	De-	1A	De-	1.cn	-nus	2e/)	.
!LO:TX:t=P:problem=kreska pseudotaktowa	!	!	!	!	!	!	!
2A\	-us	.	.	.	.	4e/	-mi-
!	!	!	!	!	!	!LO:TX:t=P:problem=kreska pseudotaktowa	!
.	.	.	.	.	.	4e/	-n(us)
*	*Xij	*	*	*	*	*	*
2D/	Sab-	2A,<\	-us	.	.	4f#/	DE-
.	.	.	.	.	.	4f#/	-(us)
!LO:TX:t=P:problem=kreska pseudotaktowa	!	!	!	!	!	!	!
2G\	.	4B\	Sab-	4B/	De-	1g\	Sab-
!	!	!LO:TX:t=P:problem=kreska pseudotaktowa	!	!	!	!	!
.	.	4d\	.	4B/	-us	.	.
!LO:LB:g=original	!	!	!	!	!	!	!
=8	=8	=8	=8	=8-	=8-	=8-	=8-
2.D\	.	2.d\	.	2.A/	Sab-	.	.
.	.	.	.	.	.	2f#/	-ba-
4D\	-ba-	4d\	-ba-	4A/	-ba-	.	.
!	!	!LO:N:vis=0	!	!LO:N:vis=0	!	!	!
1GG;>	-oth.	1d;>	-oth.	1B;>	-oth.	1g;<	-oth
=9||	=9||	=9||	=9||	=9||	=9||	=9||	=9||
(>4G\	Ple-	1d	Ple-	2r	.	1r	.
4A\)	.	.	.	.	.	.	.
(>4B|>\	-ni	.	.	1g	Ple-	.	.
!LO:TX:t=P:problem=kreska pseudotaktowa	!	!	!	!	!	!	!
4c|>\)	.	.	.	.	.	.	.
2d\	sunt	2d\	-ni	.	.	2a\	Ple-
!	!	!LO:TX:t=P:problem=kreska pseudotaktowa	!	!LO:TX:t=P:problem=kreska pseudotaktowa	!	!	!
4D/	Cae-	2d\	sunt	[<2f#\	-ni	4a\	-ni
!LO:TX:t=P:problem=kreska pseudotaktowa	!	!	!	!	!	!LO:TX:t=P:problem=kreska pseudotaktowa	!
4D/	-li	.	.	.	.	4a\	sunt
!	!	!LO:LB:g=original	!	!	!	!	!
=10	=10	=10	=10	=10	=10	=10	=10
(>4E\	et	1B	Cae-	4f#\]	.	2g/	cae-
4F#\	ter-	.	.	4f#\	sunt	.	.
4G\	.	.	.	1e	cae-	4g/	-li
!	!	!	!	!	!	!LO:TX:t=P:problem=kreska pseudotaktowa	!
!LO:TX:t=P:problem=kreska pseudotaktowa	!	!	!	!	!	!	!
!	!	!	!	!	!	!LO:SIC:v:t=custos f	!
4A\)	.	.	.	.	.	4g/	et
!	!	!	!	!	!	!LO:LB:g=original	!
2B\	-ra	2B\	-li	.	.	4f#/	ter-
.	.	.	.	.	.	4f#/	-ra
!LO:TX:t=P:problem=kreska pseudotaktowa	!	!LO:TX:t=P:problem=kreska pseudotaktowa	!	!	!	!	!
2BB,</	.	2B\	et	4d#X\	-li	1b\	.
!	!	!	!	!LO:TX:t=P:problem=kreska pseudotaktowa	!	!	!
.	.	.	.	4d#\	et	.	.
=11	=11	=11	=11	=11	=11	=11-	=11-
1.C	glo-	2G/	ter-	2e\	ter-	.	.
!	!	!LO:TX:t=P:problem=kreska pseudotaktowa	!	!LO:TX:t=P:problem=kreska pseudotaktowa	!	!	!
.	.	2A\	-ra	2e\	-ra	1a	glo-
!	!	!	!	!LO:LB:g=original	!	!	!
.	.	2d\	glo-	2f#\	glo-	.	.
4BB/	-ri-	4d\	-ri-	4g\	-ri-	4b\	-ri-
!LO:TX:t=P:problem=kreska pseudotaktowa	!	!LO:TX:t=P:problem=kreska pseudotaktowa	!	!LO:TX:t=P:problem=kreska pseudotaktowa	!	!LO:TX:t=P:problem=kreska pseudotaktowa	!
4BB/	-a	4d\	-a	4g\	-a	4b\	-a
=12	=12	=12	=12	=12	=12	=12	=12
1AA	tu-	2e\	.	(>2g\	tua-	1cc	tu-
!	!	!LO:TX:t=P:problem=kreska pseudotaktowa	!	!LO:TX:t=P:problem=kreska pseudotaktowa	!	!	!
.	.	2A/	tu-	2f#\)	.	.	.
!	!	!	!	!	!	!LO:TX:t=P:problem=kreska pseudotaktowa	!
!	!	!	!	!LO:TX:t=P:global:problem=kreska oddechu na różnych liniach [rozdzielacz słów / znak oddechu]	!	!	!
2GG,</	-â	2d,<\	-a	2g,<\	-a	1b	-a
!LO:TX:t=P:problem=kreska pseudotaktowa	!	!LO:TX:t=P:problem=kreska pseudotaktowa	!	!	!	!	!
2G\	glo-	2d\	glo-	2b\	glo-	.	.
=13	=13	=13	=13	=13-	=13-	=13	=13
!	!	!	!	!LO:TX:t=P:problem=kreska pseudotaktowa	!	!	!
(>2F#\	.	2.d\	-ri-	1a	.	2r	.
2D\)	.	.	.	.	.	(>2dd\	glo-
.	.	4d\	-a	.	.	.	.
!	!	!LO:TX:t=P:problem=kreska pseudotaktowa	!	!	!	!	!
2G\	.	1d	.	2g\	-ri-	2b\	.
!	!	!	!	!	!	!LO:TX:t=P:problem=kreska pseudotaktowa	!
4GG/	-ri-	.	.	4g\	-a	2g/)	.
!LO:TX:t=P:problem=kreska pseudotaktowa	!	!	!	!LO:TX:t=P:problem=kreska pseudotaktowa	!	!	!
4GG/	-a	.	.	4g\	.	.	.
=14	=14	=14	=14	=14	=14	=14	=14
!LO:TX:t=P:problem=kreska pseudotaktowa	!	!	!	!	!	!	!
[<0D	Tu-	2r	.	2f#\	glo-	2.a\	.
.	.	2d\	glo-	2d\	.	.	.
.	.	.	.	.	.	4a\	-ri-
!	!	!	!	!	!	!LO:TX:t=P:problem=kreska pseudotaktowa	!
.	.	2B\	.	2g\	-ri-	1b	-a
!	!	!LO:TX:t=P:problem=kreska pseudotaktowa	!	!	!	!	!
.	.	2G/	-ri-	4g\	-a	.	.
!	!	!	!	!LO:TX:t=P:problem=kreska pseudotaktowa	!	!	!
.	.	.	.	4g\	.	.	.
=15	=15	=15	=15	=15	=15	=15	=15
0D]	.	4A/	-a	2f#\	.	2a\	.
.	.	4A/	.	.	.	.	.
!	!	!LO:TX:t=P:problem=kreska pseudotaktowa	!	!	!	!	!
.	.	2d\	.	1g	Tu-	2b\	Tu-
.	.	1d	Tu-	.	.	1a	-â.
.	.	.	.	2f#\	.	.	.
=16-	=16-	=16-	=16-	=16-	=16-	=16-	=16-
0GG;>	-â.	0d;>	-â.	0g	-â.	0b;>	.
!LO:PB:g=original	!	!LO:LB:g=original	!	!	!	!	!
=17||	=17||	=17||	=17||	=17||	=17||	=17||	=17||
*>B	*	*>B	*	*>B	*	*>B	*
*M2/1	*	*M2/1	*	*M2/1	*	*M2/1	*
*met(C|)	*	*met(C|)	*	*met(C|)	*	*met(C|)	*
!LO:TX:t=P:problem=w źródle inicjał O na początku pięciolinii	!	!LO:TX:t=P:problem=w źródle inicjał O na początku pięciolinii	!	!	!	!	!
!	!	!	!	!LO:TX:t=P:problem=w źródle inicjał O na początku Osanny	!	!	!
00r	.	00r	.	0r	.	2r	.
!	!	!	!	!	!	!LO:TX:t=P:problem=kreska pseudotaktowa	!
.	.	.	.	.	.	2g/	O-
.	.	.	.	.	.	2dd\	-san-
.	.	.	.	.	.	(>4dd\	-na
!	!	!	!	!	!	!LO:TX:t=P:problem=kreska pseudotaktowa	!
.	.	.	.	.	.	4cc\)	.
=18-	=18-	=18-	=18-	=18	=18	=18	=18
!	!	!	!	!LO:TX:t=P:problem=kreska pseudotaktowa	!	!	!
.	.	.	.	1r	.	2b\	in
!	!	!	!	!	!	!LO:TX:t=P:problem=kreska pseudotaktowa	!
.	.	.	.	.	.	2g\	ex-
!	!	!	!	!	!	!LO:TX:t=P:problem=kreska pseudotaktowa	!
!	!	!	!	!	!	!LO:SIC:v:t=custos b	!
.	.	.	.	2r	.	1a	-cel-
!	!	!	!	!LO:TX:t=P:problem=kreska pseudotaktowa	!	!	!
.	.	.	.	2d\	O-	.	.
!	!	!	!	!	!	!LO:LB:g=original	!
=19-	=19-	=19-	=19-	=19	=19	=19	=19
00r	.	0r	.	2g\	-san-	2b,<\	-sis
!	!	!	!	!LO:TX:t=P:problem=kreska pseudotaktowa	!	!LO:TX:t=P:problem=kreska pseudotaktowa	!
.	.	.	.	2g\	-na	2b\	O-
!	!	!	!	!LO:LB:g=original	!	!	!
.	.	.	.	2f#\	in	2a\	-san-
.	.	.	.	2d\	ex-	1dd\	-na
=20-	=20-	=20-	=20-	=20-	=20-	=20-	=20-
!	!	!LO:TX:t=P:problem=kreska pseudotaktowa	!	!	!	!	!
.	.	1r	.	1e	-cel-	.	.
.	.	.	.	.	.	1ccn	in
.	.	2r	.	2f#\	.	.	.
!	!	!	!	!	!	!LO:TX:t=P:problem=kreska pseudotaktowa	!
.	.	2G/	O-	1g\	.	2b\	ex-
=21-	=21-	=21-	=21-	=21-	=21-	=21	=21
!LO:TX:t=P:problem=kreska pseudotaktowa	!	!	!	!	!	!	!
0r	.	2d\	-san-	.	.	1a	-cel-
!	!	!	!	!LO:TX:t=P:problem=kreska pseudotaktowa	!	!	!
.	.	(>4d\	-na	2f#\	.	.	.
!	!	!LO:TX:t=P:problem=kreska pseudotaktowa	!	!	!	!	!
.	.	4c\)	.	.	.	.	.
*	*	*	*	*	*	*lig	*
.	.	2B\	in	1g	.	1b	.
.	.	2G/	ex-	.	.	.	.
=22	=22	=22-	=22-	=22-	=22-	=22-	=22-
!	!	!LO:TX:t=P:problem=kreska pseudotaktowa	!	!LO:TX:t=P:problem=kreska pseudotaktowa	!	!	!
2r	.	1A	-cel-	1f#,<	-sis	1a	.
2D/	O-	.	.	.	.	.	.
!LO:TX:t=P:problem=kreska pseudotaktowa	!	!	!	!	!	!	!
*	*	*	*	*	*	*Xlig	*
!	!	!	!	!	!	!LO:TX:t=P:problem=kreska pseudotaktowa	!
2G\	-san-	1B	.	2r	.	1g,<	-sis
!LO:TX:t=P:problem=kreska pseudotaktowa	!	!	!	!	!	!	!
2G\	-na	.	.	2G/	O-	.	.
=23	=23	=23-	=23-	=23-	=23-	=23	=23
2F#\	in	2A,<\	-sis	2d\	-san-	2r	.
*	*	*	*	*	*	*	*ij
!LO:TX:t=P:problem=kreska pseudotaktowa	!	!	!	!	!	!	!
2D\	ex-	1d	O-	4d\	-na	2d/	O-
!	!	!	!	!LO:TX:t=P:problem=kreska pseudotaktowa	!	!	!
.	.	.	.	4c\	in	.	.
1E	-cel-	.	.	2B/	ex-	2g\	-san-
!	!	!	!	!	!	!LO:TX:t=P:problem=kreska pseudotaktowa	!
.	.	1c\	-san-	2G/	-cel-	2g\	-na
=24-	=24-	=24-	=24-	=24-	=24-	=24	=24
2F#\	.	.	.	2A/	.	2f#/	in
!LO:TX:t=P:problem=kreska pseudotaktowa	!	!LO:TX:t=P:problem=kreska pseudotaktowa	!	!LO:TX:t=P:problem=kreska pseudotaktowa	!	!LO:TX:t=P:problem=kreska pseudotaktowa	!
1G\	.	2B\	-na	2B/	.	2d/	ex-
.	.	1A	in	1c	-sis	2e/	-cel-
!LO:TX:t=P:problem=kreska pseudotaktowa	!	!	!	!	!	!	!
2F#\	-sis	.	.	.	.	2f#/	.
=25	=25	=25-	=25-	=25-	=25-	=25-	=25-
!	!	!	!	!	!	!LO:TX:t=P:problem=kreska pseudotaktowa	!
2G,<\	in	1B	ex-	2B,</	.	1d	-sis
!	!	!	!	!LO:TX:t=P:problem=kreska pseudotaktowa	!	!	!
4GG/	.	.	.	2g\	O-	.	.
!LO:TX:t=P:problem=kreska pseudotaktowa	!	!	!	!	!	!	!
4GG/	ex-	.	.	.	.	.	.
*	*	*	*	*	*	*	*Xij
!LO:TX:t=P:problem=kreska pseudotaktowa	!	!	!	!	!	!	!
[<00D	-cel-	2A\	-cel-	2f#\	-san-	2r	.
.	.	2B\	-ſis.	2g,<\	-na	2g\	O-
=26-	=26-	=26-	=26-	=26-	=26-	=26-	=26-
!	!	!LO:TX:t=P:problem=kreska pseudotaktowa	!	!	!	!	!
.	.	1A	.	2a\	in	2dd\	-san-
!	!	!	!	!LO:TX:t=P:problem=kreska pseudotaktowa	!	!	!
.	.	.	.	2d\	ex-	(>4dd\	-na
!	!	!	!	!	!	!LO:TX:t=P:problem=kreska pseudotaktowa	!
.	.	.	.	.	.	4cc\)	.
.	.	2r	.	1g	-cel-	2b\	in
.	.	2G/	O-	.	.	2g\	ex-
=27-	=27-	=27-	=27-	=27-	=27-	=27-	=27-
!	!	!	!	!	!	!LO:TX:t=P:problem=kreska pseudotaktowa	!
.	.	2d\	-san-	2f#,<\	-sis	1a	-cel-
.	.	(>4d\	-na	2f#\	O-	.	.
!	!	!LO:TX:t=P:problem=kreska pseudotaktowa	!	!	!	!	!
.	.	4c\)	.	.	.	.	.
!	!	!LO:LB:g=original	!	!	!	!LO:LB:g=original	!
00D]	.	2B\	in	2g\	-san-	2b,<\	-sis.
*	*	*	*	*	*	*	*ij
!	!	!	!	!LO:TX:t=P:problem=kreska pseudotaktowa	!	!LO:TX:t=P:problem=kreska pseudotaktowa	!
.	.	2G/	ex-	2g,<\	-na	2b\	O-
=28-	=28-	=28-	=28-	=28	=28	=28	=28
.	.	2A/	-cel-	2f#\	in	2a\	-san-
!	!	!LO:TX:t=P:problem=kreska pseudotaktowa	!	!LO:TX:t=P:problem=kreska pseudotaktowa	!	!LO:TX:t=P:problem=kreska pseudotaktowa	!
.	.	2G/	-sis	2g\	ex-	2b\	-na
!	!	!	!	!LO:LB:g=original	!	!	!
.	.	2D,</	.	2f#\	-cel-	2a\	in
.	.	4d\	in	1g\	.	2b\	ex-
!	!	!LO:TX:t=P:problem=kreska pseudotaktowa	!	!	!	!	!
.	.	4d\	ex-	.	.	.	.
=29	=29	=29	=29	=29-	=29-	=29-	=29-
.	.	1d	-cel-	.	.	1a	-cel-
.	.	.	.	2f#\	.	.	.
!LO:N:vis=0	!	!LO:N:vis=0	!	!LO:N:vis=0	!	!LO:N:vis=0	!
1GG;>	-sis.	1d;>	-ſis.	1g;<	-sis.	1b;>	-sis.
*	*	*	*	*	*	*	*Xij
!LO:LB:g=original	!	!	!	!	!	!	!
=30||	=30||	=30||	=30||	=30||	=30||	=30||	=30||
*>C	*	*>C	*	*>C	*	*>C	*
*M2/1	*	*M2/1	*	*M2/1	*	*M2/1	*
*met(C|)	*	*met(C|)	*	*met(C|)	*	*met(C|)	*
!LO:TX:t=P:problem=w źródle po znaku przykluczowym kropki na wysokości dżwięków E G B	!	!	!	!	!	!	!
!LO:TX:t=P:problem=w źródle inicjał B na początku pięciolinii	!	!LO:TX:t=P:problem=w źródle inicjał B na początku pięciolinii	!	!	!	!	!
!LO:TX:b:Bi:t=Benedictus	!	!LO:TX:b:Bi:t=Benedict(us)	!	!	!	!	!
!	!	!	!	!LO:TX:t=P:problem=kreska pseudotaktowa	!	!	!
00r	.	00r	.	1r	.	2r	.
.	.	.	.	.	.	1b	Be-
.	.	.	.	1e	Be-	.	.
!	!	!	!	!	!	!LO:TX:t=P:problem=kreska pseudotaktowa	!
.	.	.	.	.	.	[<2cc\	-ne-
=31-	=31-	=31-	=31-	=31-	=31-	=31	=31
.	.	.	.	1fn	-ne-	2cc\]	.
.	.	.	.	.	.	1a	-di-
.	.	.	.	1d	-di-	.	.
!	!	!	!	!	!	!LO:TX:t=P:problem=kreska pseudotaktowa	!
!	!	!	!	!	!	!LO:TX:a:t=P:problem=w źródle możliwa ligatura	!
.	.	.	.	.	.	[<2dd\	-ctus
=32-	=32-	=32-	=32-	=32-	=32-	=32	=32
!	!	!	!	!LO:TX:t=P:problem=kreska pseudotaktowa	!	!	!
00r	.	00r	.	1g,<	-ctus	2dd\]	.
.	.	.	.	.	.	1b	qui
.	.	.	.	1e	qui	.	.
!	!	!	!	!	!	!LO:TX:t=P:problem=kreska pseudotaktowa	!
!	!	!	!	!	!	!LO:TX:a:t=P:problem=w źródle możliwa ligatura	!
.	.	.	.	.	.	[<2ee\	ve-
=33-	=33-	=33-	=33-	=33-	=33-	=33	=33
.	.	.	.	2.a\	ve-	4ee\]	.
.	.	.	.	.	.	4dd\	.
.	.	.	.	.	.	1cc	.
.	.	.	.	4g\	.	.	.
.	.	.	.	4f#X\	.	.	.
.	.	.	.	4e\	.	.	.
.	.	.	.	4f#\	.	4dd\	-nit
!	!	!	!	!LO:TX:t=P:problem=kreska pseudotaktowa	!	!LO:TX:t=P:problem=kreska pseudotaktowa	!
.	.	.	.	4d\	.	4cc\	.
=34-	=34-	=34-	=34-	=34	=34	=34	=34
!	!	!LO:TX:t=P:problem=kreska pseudotaktowa	!	!	!	!	!
0r	.	0r	.	2g\	-nit	2b,<\	in
!	!	!	!	!	!	!LO:TX:t=P:problem=kreska pseudotaktowa	!
.	.	.	.	4g\	in	2dd\	.
.	.	.	.	4g\	.	.	.
!	!	!	!	!	!	!LO:LB:g=original	!
.	.	.	.	4cc\	No-	4ee\	No-
.	.	.	.	4b\	.	4dd\	.
.	.	.	.	(>4a\	-mi-	(>4ccn\	-mi-
!	!	!	!	!LO:TX:t=P:problem=kreska pseudotaktowa	!	!LO:TX:t=P:problem=kreska pseudotaktowa	!
.	.	.	.	4g\)	.	4b\)	.
=35-	=35-	=35	=35	=35	=35	=35	=35
!LO:TX:t=P:problem=kreska pseudotaktowa	!	!	!	!	!	!	!
1r	.	2r	.	1f#,<	-ne	1a	-ne
!	!	!LO:TX:t=P:problem=kreska pseudotaktowa	!	!	!	!	!
.	.	2d\	Qui	.	.	.	.
2r	.	2B\	ve-	2.g\	Do-	2.b\	Do-
!LO:TX:t=P:problem=kreska pseudotaktowa	!	!	!	!	!	!	!
2G\	Qui	4G/	-nit	.	.	.	.
!	!	!LO:TX:t=P:problem=kreska pseudotaktowa	!	!	!	!LO:TX:t=P:problem=kreska pseudotaktowa	!
.	.	4G/	.	4g\	-mi-	4b\	-mi-
=36	=36	=36	=36	=36-	=36-	=36	=36
!	!	!	!	!LO:TX:t=P:problem=kreska pseudotaktowa	!	!	!
2F#\	ve-	2A\	No-	1d,<	-ni	2a,<\	-ni
4D,</	-nit	2A\	-mi-	.	.	2dd\	in
!LO:TX:t=P:problem=kreska pseudotaktowa	!	!	!	!	!	!	!
4D/	in	.	.	.	.	.	.
2G\	No-	2B,<\	-ne	2r	.	(>2b\	No-
!	!	!LO:TX:t=P:problem=kreska pseudotaktowa	!	!	!	!LO:TX:t=P:problem=kreska pseudotaktowa	!
4GG/	-mi-	2B\	in	2g\	qui	2g\)	.
!LO:TX:t=P:problem=kreska pseudotaktowa	!	!	!	!	!	!	!
4GG/	-ne	.	.	.	.	.	.
=37	=37	=37	=37	=37-	=37-	=37	=37
!LO:TX:t=P:problem=kreska pseudotaktowa	!	!	!	!	!	!	!
[<0D	Do-	(>2A\	No-	2f#\	ve-	2a\	-mi-
.	.	2d\)	.	4d\	-nit	2a\	-ne
!	!	!	!	!LO:TX:t=P:problem=kreska pseudotaktowa	!	!	!
.	.	.	.	4d\	in	.	.
!	!	!	!	!LO:LB:g=original	!	!	!
!	!	!	!	!	!	!LO:TX:t=P:problem=kreska pseudotaktowa	!
.	.	2B\	.	2g\	No-	1b,<	.
.	.	4G/	-mi-	4g\	-mi-	.	.
!	!	!LO:TX:t=P:problem=kreska pseudotaktowa	!	!LO:TX:t=P:problem=kreska pseudotaktowa	!	!	!
.	.	4G/	-ne	4g\	-ne	.	.
!	!	!LO:LB:g=original	!	!	!	!	!
=38	=38	=38	=38	=38	=38	=38	=38
*col	*	*	*	*	*	*	*
!LO:N:vis=0	!	!	!	!	!	!	!
1.D]	-mi-	(>2A\	Do-	2f#\	Do-	2a\	Do-
.	.	2d\)	.	1g	.	2b\	.
.	.	2.d\	.	.	.	2.a\	-mi-
2D/	-ni.	.	.	2f#\	-mi-	.	.
.	.	4d\	-mi-	.	.	4a\	-ni.
*Xcol	*	*	*	*	*	*	*
=39-	=39-	=39-	=39-	=39-	=39-	=39-	=39-
!LO:TX:a:Bi:t=Osanna \nDa Capo	!	!LO:TX:a:Bi:t=Osanna Da Capo	!	!	!	!	!
!	!	!	!	!LO:TX:a:Bi:t=Osanna Da Capo	!	!LO:TX:a:Bi:t=Osanna \nDa Capo	!
0GG;>	.	0d;>	-ni.	0g;<	-ni.	0b;<	.
==	==	==	==	==	==	==	==
*-	*-	*-	*-	*-	*-	*-	*-
!!title: @{OTL};
!!!RDF**kern: > = above
!!!RDF**kern: < = below
!!!RDF**kern: | = vertical stroke
!!!RDF**kern: N = linked
!!!RDF**kern: i = editorial accidental
!!!RDF**kern: l = terminal long
!!!EED: Wojciech Jakubiak-Danek
!!!EST: 2021-07-25
!!!URL-scan: http://repozytorium.nifc.pl/skany/pl-kk-nut--i-30
!!!ONB-nifc: UWAGA: części Mszy: 1. Kyrie, 2. Et in terra, 3. Sanctus, 4. Agnus Dei.
!!!AIN: 1 alto 1 empty 1 tenor 1 vox
!!!ENC: Katarzyna Serwa
!!!END: 2021-07-03
